to helper :x
    localmake "temp :x
    forward :temp
end

to draw :size :color [:bubo]
    make "size :size * 2
    repeat :size [
        helper :size
        right 90
    ]
end

define "dudu [[n "mare sum 2 3] print :n]

make "size 100
make "size 200

to myproc :p
    print :p
end

to size
    forward :size
end

to mare
  print 42
end

(draw :size 1 2)
size
helper :size